app/assets/images/payment_icons/eftposau.svg

<svg xmlns="http://www.w3.org/2000/svg" role="img" viewBox="0 0 38 24" width="38" height="24" aria-labelledby="pi-eftposau"><title id="pi-eftposau">Eftposau</title><g clip-path="url(#pi-eftposau-clip0_2114_162)"><path opacity="0.07" d="M35 0H3C1.3 0 0 1.3 0 3V21C0 22.7 1.4 24 3 24H35C36.7 24 38 22.7 38 21V3C38 1.3 36.6 0 35 0Z" fill="black"/><path d="M35 1C36.1 1 37 1.9 37 3V21C37 22.1 36.1 23 35 23H3C1.9 23 1 22.1 1 21V3C1 1.9 1.9 1 3 1H35Z" fill="white"/><path d="M19.4754 4.19953C17.5749 5.06691 16.29 6.72758 16.29 8.63437C16.29 11.0406 18.5077 12.9914 21.2433 12.9914C22.4989 12.9914 23.3818 12.7016 24.414 12.081C24.5237 12.0155 24.6473 11.966 24.7283 12.0687C24.7747 12.1274 24.7552 12.1988 24.7197 12.264C23.5922 14.3312 21.2979 15.7686 18.7232 15.7686C14.9189 15.7686 11.835 12.6865 11.835 8.88458C11.835 6.71358 12.8405 4.77744 14.4117 3.51547C15.5921 2.56753 18.5504 2.4368 19.4754 4.19953Z" fill="url(#pi-eftposau-paint0_linear_2114_162)"/><path d="M24.6402 6.86522C24.6402 9.15193 22.4549 11.0055 19.7592 11.0055C19.3671 11.0055 18.3049 10.9515 17.5449 10.5979C17.3287 10.4972 17.3509 10.3709 17.4995 10.3095C17.8448 10.1671 20.5537 9.64757 20.5537 6.86488C20.5537 4.08218 17.6788 2.04773 14.4117 3.51486C15.5918 2.56692 17.0913 1.99994 18.7233 1.99994C21.9224 2.00062 24.6402 4.17844 24.6402 6.86522Z" fill="#E50056"/><path d="M10.7201 17.5563C9.59978 17.5563 9 18.2302 9 19.102V19.1269C9 20.0038 9.4758 20.5787 10.6706 20.5787C11.533 20.5787 12.1133 20.3011 12.361 19.6471H11.5282C11.4043 19.8601 11.1713 19.9792 10.7252 19.9792C10.1155 19.9792 9.81292 19.7563 9.73368 19.3501H12.4009V19.048C12.4009 18.1854 11.8206 17.5563 10.7201 17.5563ZM9.74358 18.7852C9.84263 18.3838 10.1699 18.151 10.7351 18.151C11.2854 18.151 11.5679 18.3541 11.6423 18.7852H9.74358Z" fill="#1F0038"/><path d="M15.767 16.8726H15.1224C15.1224 17.0013 15.1177 17.2095 15.0927 17.3433C15.048 17.5812 14.9885 17.6314 14.7754 17.6512C14.6415 17.6611 14.4929 17.6611 14.3491 17.6611H13.8436V17.5416C13.8436 17.1105 13.928 17.0313 14.3047 17.0313H14.5544V16.4169H14.2204C13.3976 16.4169 13.1147 16.6944 13.1147 17.5119V17.6611H12.4456V18.3045H13.1147V20.4943H13.8385L13.8433 18.3045H15.0429V19.1965C15.0429 20.1625 15.3007 20.4947 16.2475 20.4947H16.7879V19.816H16.4457C15.8606 19.816 15.7666 19.7317 15.7666 19.0729V18.3049H16.7879V17.6614H15.7666V16.8726H15.767Z" fill="#1F0038"/><path d="M19.0539 17.5663C18.4985 17.5663 18.0723 17.7944 17.854 18.1856L17.7908 17.6609H17.1401V21.5001H17.8888V20.0435C18.0921 20.3804 18.464 20.5685 19.0341 20.5685C19.8371 20.5685 20.5015 20.0831 20.5015 19.1069V19.0819C20.5015 18.0965 19.9464 17.5663 19.0539 17.5663ZM19.723 19.1024C19.723 19.6424 19.4406 19.9398 18.796 19.9398C18.1863 19.9398 17.8738 19.6377 17.8738 19.0976V19.0778C17.8738 18.518 18.226 18.1859 18.8059 18.1859C19.4156 18.1859 19.723 18.4931 19.723 19.0826V19.1024Z" fill="#1F0038"/><path d="M22.4995 17.5563C21.4834 17.5563 20.7941 18.1261 20.7941 19.0774V19.1071C20.7941 20.0335 21.3048 20.5787 22.4845 20.5787C23.6298 20.5787 24.2098 20.0089 24.2098 19.1071V19.0774C24.2098 18.1162 23.5355 17.5563 22.4995 17.5563ZM23.4313 19.1023C23.4313 19.6423 23.1489 19.9396 22.4992 19.9396C21.8745 19.9396 21.5722 19.6475 21.5722 19.1023V19.0774C21.5722 18.4927 21.9093 18.1854 22.5091 18.1854C23.1239 18.1854 23.4313 18.5026 23.4313 19.0774V19.1023Z" fill="#1F0038"/><path d="M26.1829 18.7603C25.4441 18.7108 25.2409 18.6613 25.2409 18.4531C25.2409 18.2797 25.3847 18.1312 25.9151 18.1312C26.381 18.1312 26.6686 18.2401 26.7332 18.5227H27.5461C27.3924 17.8837 26.8869 17.5567 25.9251 17.5567C24.9632 17.5567 24.4973 17.9629 24.4973 18.5128C24.4973 19.1023 24.9929 19.2908 25.8755 19.3403C26.6092 19.3799 26.8374 19.4246 26.8374 19.6376C26.8374 19.8458 26.6591 19.9745 26.1235 19.9745C25.5732 19.9745 25.3253 19.8557 25.246 19.5533H24.3832C24.5072 20.237 25.0425 20.5787 26.0934 20.5787C27.0898 20.5787 27.5905 20.1725 27.5905 19.6075C27.5908 18.9982 27.1646 18.8197 26.1829 18.7603Z" fill="#1F0038"/><path d="M27.9039 18.1851C27.8138 18.1851 27.7391 18.1592 27.6797 18.1077C27.6203 18.0562 27.5909 17.9808 27.5909 17.8822V17.8675C27.5909 17.8362 27.5944 17.8065 27.6015 17.7788C27.6087 17.7512 27.6186 17.726 27.6316 17.7031C27.6589 17.6564 27.6957 17.6202 27.7425 17.5947C27.7892 17.5691 27.8418 17.5565 27.9005 17.5565C27.9299 17.5565 27.9575 17.5595 27.9838 17.5653C28.0097 17.5711 28.035 17.5803 28.0589 17.5923C28.1056 17.6172 28.1432 17.6526 28.1712 17.699C28.1995 17.7451 28.2135 17.8007 28.2135 17.8658V17.8822C28.2135 17.9146 28.2101 17.945 28.2029 17.9726C28.1957 18.0002 28.1851 18.0251 28.1712 18.0466C28.1438 18.0923 28.107 18.1268 28.0602 18.15C28.0135 18.1735 27.9616 18.1851 27.9039 18.1851ZM27.9039 18.1332C27.9776 18.1332 28.0384 18.1114 28.0855 18.0681C28.1326 18.0248 28.1565 17.9617 28.1565 17.8791V17.8692C28.1565 17.7867 28.1322 17.7229 28.0841 17.6779C28.0357 17.6329 27.9746 17.6104 27.9008 17.6104C27.8281 17.6104 27.7677 17.6335 27.72 17.6803C27.6722 17.727 27.6483 17.7904 27.6483 17.8709V17.8791C27.6483 17.9606 27.6722 18.0234 27.72 18.0674C27.7674 18.1111 27.8288 18.1332 27.9039 18.1332ZM27.907 17.9085H27.8401V18.0275H27.7848V17.7065H27.9135C27.9582 17.7065 27.9899 17.7151 28.0087 17.7325C28.0278 17.7499 28.0374 17.7727 28.0374 17.801C28.0374 17.8239 28.0319 17.8419 28.021 17.8556C28.0101 17.8692 27.9937 17.8788 27.9722 17.8842C27.9927 17.8887 28.0073 17.8969 28.0162 17.9088C28.0251 17.9207 28.0292 17.9392 28.0292 17.9641V18.0111C28.0292 18.0145 28.0299 18.0173 28.0309 18.02C28.0319 18.0227 28.0329 18.0251 28.0343 18.0272H27.9773C27.9763 18.0261 27.9752 18.0241 27.9749 18.0214C27.9742 18.0186 27.9742 18.0152 27.9742 18.0108V17.9637C27.9742 17.9429 27.9705 17.9286 27.963 17.9204C27.9548 17.9122 27.9363 17.9085 27.907 17.9085ZM27.907 17.8611C27.9353 17.8621 27.9551 17.8576 27.9664 17.8471C27.9776 17.8368 27.9834 17.8218 27.9834 17.8024C27.9834 17.786 27.9773 17.7737 27.9653 17.7659C27.9534 17.7577 27.935 17.7536 27.9101 17.7536H27.8401V17.8611H27.907Z" fill="#1F0038"/></g><defs><linearGradient id="pi-eftposau-paint0_linear_2114_162" x1="18.3555" y1="11.1532" x2="15.7227" y2="-2.39973" gradientUnits="userSpaceOnUse"><stop offset="0.1411" stop-color="#E50056"/><stop offset="0.75" stop-color="#1F0038"/></linearGradient><clipPath id="pi-eftposau-clip0_2114_162"><rect width="38" height="24" fill="white"/></clipPath></defs></svg>

<svg xmlns="http://www.w3.org/2000/svg" width="38" height="24" aria-labelledby="pi-eftposau" role="img" viewBox="0 0 38 24"><title id="pi-eftposau">Eftposau</title><g clip-path="url(#pi-eftposau-clip0_2114_162)"><path fill="#fff" d="M0 0h38v24H0z"/><path fill="url(#pi-eftposau-paint0_linear_2114_162)" d="M19.475 4.2c-1.9.867-3.185 2.528-3.185 4.434 0 2.407 2.218 4.357 4.953 4.357 1.256 0 2.139-.29 3.171-.91.11-.066.233-.115.314-.012.047.058.027.13-.008.195-1.128 2.067-3.422 3.505-5.997 3.505a6.886 6.886 0 0 1-6.888-6.884 6.87 6.87 0 0 1 2.577-5.37c1.18-.947 4.138-1.078 5.063.685"/><path fill="#E50056" d="M24.64 6.865c0 2.287-2.185 4.14-4.88 4.14-.393 0-1.455-.054-2.215-.407-.216-.1-.194-.227-.046-.289.346-.142 3.055-.661 3.055-3.444s-2.875-4.817-6.142-3.35A6.86 6.86 0 0 1 18.723 2c3.2 0 5.917 2.178 5.917 4.865"/><path fill="#1F0038" d="M10.72 17.556c-1.12 0-1.72.674-1.72 1.546v.025c0 .877.476 1.452 1.67 1.452.863 0 1.443-.278 1.691-.932h-.833c-.124.213-.357.332-.803.332-.61 0-.912-.223-.991-.629H12.4v-.302c0-.863-.58-1.492-1.68-1.492m-.976 1.23c.099-.402.426-.635.991-.635.55 0 .833.203.907.634zM15.767 16.873h-.645c0 .128-.004.336-.03.47-.044.238-.104.288-.317.308-.133.01-.282.01-.426.01h-.505v-.12c0-.43.084-.51.46-.51h.25v-.614h-.334c-.822 0-1.105.277-1.105 1.095v.15h-.67v.643h.67v2.19h.723l.005-2.19h1.2v.892c0 .966.258 1.298 1.204 1.298h.54v-.679h-.341c-.585 0-.68-.084-.68-.743v-.768h1.022v-.644h-1.021zM19.054 17.566c-.555 0-.982.228-1.2.62l-.063-.525h-.65v3.84h.748v-1.457c.203.336.575.524 1.145.524.803 0 1.468-.485 1.468-1.461v-.025c0-.986-.556-1.516-1.448-1.516m.669 1.536c0 .54-.282.838-.927.838-.61 0-.922-.302-.922-.842v-.02c0-.56.352-.892.932-.892.61 0 .917.307.917.897zM22.5 17.556c-1.017 0-1.706.57-1.706 1.521v.03c0 .927.51 1.472 1.69 1.472 1.146 0 1.726-.57 1.726-1.472v-.03c0-.96-.675-1.52-1.71-1.52m.931 1.546c0 .54-.282.838-.932.838-.624 0-.927-.293-.927-.838v-.025c0-.584.337-.892.937-.892.615 0 .922.318.922.892zM26.183 18.76c-.739-.05-.942-.099-.942-.307 0-.173.144-.322.674-.322.466 0 .754.11.818.392h.813c-.154-.64-.66-.966-1.62-.966-.963 0-1.429.406-1.429.956 0 .59.496.778 1.378.827.734.04.962.085.962.298 0 .208-.178.336-.713.336-.55 0-.799-.118-.878-.42h-.863c.124.683.66 1.025 1.71 1.025.997 0 1.497-.407 1.497-.971 0-.61-.425-.788-1.407-.848M27.904 18.185a.33.33 0 0 1-.224-.077q-.09-.078-.09-.226v-.015a.36.36 0 0 1 .042-.164.3.3 0 0 1 .11-.108.3.3 0 0 1 .159-.038q.043 0 .083.008a.286.286 0 0 1 .187.134.3.3 0 0 1 .043.167v.016a.4.4 0 0 1-.011.09.3.3 0 0 1-.032.075.26.26 0 0 1-.11.103.34.34 0 0 1-.157.035m0-.052a.26.26 0 0 0 .181-.065q.072-.065.072-.189v-.01a.25.25 0 0 0-.073-.191.26.26 0 0 0-.183-.068.25.25 0 0 0-.181.07.25.25 0 0 0-.072.19v.01q0 .12.072.187a.26.26 0 0 0 .184.066m.003-.224h-.067v.119h-.055v-.322h.128q.068 0 .096.027.028.026.028.068 0 .034-.016.055a.1.1 0 0 1-.049.028q.03.007.044.025t.013.055v.047q0 .005.002.009l.003.007h-.057l-.002-.006v-.057q0-.031-.012-.044t-.056-.012m0-.048q.042.002.06-.014.016-.015.016-.045 0-.024-.018-.036a.1.1 0 0 0-.055-.012h-.07v.107z"/></g><defs><linearGradient id="pi-eftposau-paint0_linear_2114_162" x1="18.355" x2="15.723" y1="11.153" y2="-2.4" gradientUnits="userSpaceOnUse"><stop offset=".141" stop-color="#E50056"/><stop offset=".75" stop-color="#1F0038"/></linearGradient><clipPath id="pi-eftposau-clip0_2114_162"><path fill="#fff" d="M0 0h38v24H0z"/></clipPath></defs></svg>
